X:1
T:B. D. Ackley
T:James Rowe
T:Jesus Will Sustain You
%%score { ( 1 2 ) | ( 3 4 5 ) }
L:1/8
M:3/4
K:Ab
V:1 treble 
V:2 treble 
V:3 bass 
V:4 bass 
V:5 bass 
V:1
{/x} E>F A2 F2 | G>F E4 | E>F A2 F2 | G>A B4 | c>d c2 B2 | A>B c4 | B>c G2 F2 | B2 E4 | %8
w: Does the world no|rest aff- ford?|Would you have your|strength re- stored?|Cast your bur- den|on the Loed,|Je- sus will sus-|tain you,|
w: Are you tempt- ed|by the foe?|Has your bur- den|laid you low?|To the one true|Help- er go,|Je- sus will sus-|tain you.|
w: Are you wear- y|of the fray?|Have you fall- en|by the way?|Make the Sav- ior|yours to- day|Je- sus will sus-|tain you.|
w: Dark with sin your|past may be,|Je- sus waits to|hear your plea,|Gald- ly He will|set you free;|Je- sus will sus-|tain you.|
 c>A E2 =D2 | F2 E4 | c>F d2 c2 | c2 B4 | d>d c2 B2 | A>B c2 d2 | e>c A2 c2 | B2 A4 |] %16
w: Je- sus will sus-|tain you|Je- sus will sus-|tain~ you.~|When you need a|Friend to help you,|Je- sus will sus-|tain you.|
w: ||||||||
w: ||||||||
w: ||||||||
V:2
 C>C C2 C2 | D>D D4 | C>C C2 C2 | D>C E4 | =E>E E2 G2 | F>G A4 | F>F =D2 D2 | D2 D4 | D>C C2 =B,2 | %9
 =B,2 C4 | E>E F2 E2 | =D2 D4 | E>G G2 G2 | F>G A2 A2 | A>E E2 E2 | D2 C4 |] %16
V:3
 A,>A, E,2 A,2 | B,>A, G,4 | A,>A, E,2 A,2 | B,>A, G,4 | G,>G, G,2 C,2 | z3/2 z/ z4 | %6
 =D>D B,2 A,2 | G,2 G,4 | A,>A, A,2 F,2 | =D,F, A,4 | =A,>A, A,2 A,2 | A,2 A,4 | G,>B, E2 D2 | %13
 C>E E2 D2 | C>A, C2 A,2 | G,2 A,4 |] %16
V:4
 A,,>A,, A,,2 A,,2 | E,>E, E,4 | A,,>A,, A,,2 A,,2 | E,>E, E,4 | C,>C, C,2 C,2 | F,>F, F,4 | %6
 B,,>B,, B,,2 B,,2 | E,2 E,4 | A,,>A,, A,,2 A,,2 | A,,2 A,,4 | F,>F, F,2 F,2 | B,,2 B,,4 | %12
 E,>E, E,2 E,2 | F,>E, A,2 F,2 | E,>E, E,2 E,2 | E,2 [A,,E,]4 |] %16
V:5
 x6 | x6 | x6 | x6 | x6 | C>C (F2 E2) | x6 | x6 | x6 | x6 | x6 | x6 | x6 | x6 | x6 | x6 |] %16

